X:1
T:Steadily Marching On
T:Horatio Richmond Palmer (1834-1907)
T:Steadily Marching On
T:Public Domain
T:Public Domain
T:Public Domain
T:Public Domain
C:Horatio Richmond Palmer (1834-1907)
Z:Public Domain
%%score ( 1 2 ) ( 3 4 )
L:1/8
M:4/4
K:Bb
V:1 treble 
V:2 treble 
V:3 bass 
V:4 bass 
V:1
 B2 B>B B2 (3ABc x | B2 F2 D2 B,2 | [Bd]>[Fc] [DB]>[Fc] [Bd]2 [B=e]2 | [Af]6 z2 | %4
w: 1.~Praise ye the Lord, joy- ful- ly|with glad ac- claim.|un- to His throne with glad-|ness,|
w: 2.~Praise we the Lord, He is the|to God on high.|tell of His lov- ing kind-|ness,|
 c2 c>c c2 (3=Bcd x | c2 G2 E2 C2 | [Ec]>[Fd] [Ee]>[Gc] [FB]2 [FA]2 | (c4 B2) z2 | %8
w: Mag- ni- fy His ho- ly name.|ban- ner bright, Trust-|cy as we go, His light|di- *|
w: Join the cho- rus of the sky.|march- ing on, In|sus we will go, Home to|our *|
 d2 d>d d2 (3ABc x | B2 G2 D4 | G>^F G>A [GB]>[FA] [GB]>[Gc] | (^F2 (3GAG F4) | %12
w: ten- der- ly o’er us will shine,|hand now and|||
w: joy- ful- ly home where the blest|name, Praise Him|Stead- i- ly march- ing on, with our|o’er * * * *|
 [Fd]2 [Fd]>[Fd] [Ff]2 (3[Fe][Fd][Ec] | [DB]2 [DB]>[DB] [Dd]2 (3[Dc][DB][CA] | %14
w: ||
w: Stead- i- ly march- ing on, while|we sing the joy- ful cho- rus;|
 [B,G]>[EA] [GB]>[Gc] | [Fd]2 (3[DB][Ec][Fd] x | [Ec]4 [DB]2 z2 || %17
w: |||
w: Stead- i- ly march-|ing on, pil- lar|and cloud|
"^Refrain" (3[DF][DF][DF] [DF]>[DF] [DF]2 [DB]>[Ec] | [Fd]>[DB] [Ge]>[GB] [Fd]2 [Fc] z | %19
w: ||
w: go- ing be- fore us, To the realms|of glo- ry, to our home|
 (3[EF][EF][EF] [EF]>[EF] [EF]2 [EA]>[EB] | [Ec]>[EA] [Fd]>[FB] [Ec]2 [DB] z | %21
w: ||
w: on high. * * * * * *||
 (3ddd d>d d2 (3ABc x2 | B2 (3GAB A2 D z | E>F G>A B>[Ac] [Bd]>[Ge] | [Fd]2 [Fc]2 [FB]4 |] %25
w: ||||
w: ||||
V:2
 B2 B>B B2 ABc | B2 F2 D2 B,2 | x8 | x8 | c2 c>c c2 =Bcd | c2 G2 E2 C2 | x8 | F6 x2 | %8
w: sound ho- san- na, Praise the Lord|Lift up your hearts|||March- ing a- long un- der His|ing in His mer-||vine|
w: king e- ter- nal, Glo- ry be|Praise we the Lord,|||Still march- ing on, cheer- i- ly|the ranks of Je-||rest,|
 d2 d>d d2 ABc | B2 G2 D4 | G>^F G>A x4 | d8 | x8 | x8 | x4 | x5 | x8 || x8 | x8 | x8 | x8 | %21
w: We shall be guid- ed by His|for- ev- er.||||||||||||
w: Ga- ther and praise the Sav- ior’s|for- ev- er.|ban- ners wav- ing|us;||||||||||
 dddd>d d2 ABc | B2 GA B A2 D | E>F G>A B3/2 x5/2 | x8 |] %25
w: ||||
w: ||||
V:3
 B,2 B,>B, B,2 (3A,B,C x | B,2 F,2 D,2 B,,2 | [B,D]>[F,C] [D,B,]>[F,C] [B,D]2 [G,C]2 | [F,C]6 z2 | %4
 C2 C>C C2 (3=B,CD x | C2 G,2 E,2 C,2 | [E,C]>[D,=B,] [C,C]>[E,C] [F,D]2 [F,C]2 | %7
 ([F,E]4 [B,,D]2) z2 | D2 D>D D2 (3A,B,C x | B,2 G,2 D,4 | G,>^F, G,>A, B,>A, [G,B,]>[E,G,] | %11
 (A,2 (3B,CB, A,4) | B,2 B,>B, [F,A,]2 (3[F,C][F,B,][F,A,] | %13
 G,2 G,>G, [D,^F,]2 (3[D,A,][D,G,][D,F,] | [E,G,]>[E,G,] [E,B,]>[E,B,] | [B,,B,]2 (3B,B,B, x | %16
 [F,A,]4 [B,,B,]2 z2 || (3[B,,B,][B,,B,][B,,B,] [B,,B,]>[B,,B,] [B,,B,]2 B,>B, | %18
 B,>B, [E,B,]>[E,B,] [F,B,]2 [F,A,] z | (3[F,A,][F,A,][F,A,] [F,A,]>[F,A,] [F,A,]2 [F,C]>[F,B,] | %20
 [F,A,]>[F,C] [F,B,]>[F,D] [F,A,]2 [B,,B,] z | (3DDD D>D D2 (3A,B,C x2 | B,2 (3G,A,B, A,2 D, z | %23
 E,>F, G,>A, B,>[A,C] [B,D]>[E,B,] | [F,B,]2 [F,E]2 [B,,D]4 |] %25
V:4
 B,2 B,>B, B,2 A,B,C | B,2 F,2 D,2 B,,2 | x8 | x8 | C2 C>C C2 =B,CD | C2 G,2 E,2 C,2 | x8 | x8 | %8
 D2 D>D D2 A,B,C | B,2 G,2 D,4 | G,>^F, G,>A, B,>A, x2 | D,8 | B,2 B,>B, x4 | G,2 G,>G, x4 | x4 | %15
 x2 B,B, B, | x8 || x6 B,>B, | B,>B, x6 | x8 | x8 | DDDD>D D2 A,B,C | B,2 G,A, B, A,2 D, | %23
 E,>F, G,>A, B,3/2 x5/2 | x8 |] %25

